Origami/64x64/apps/google-earth.svg

<svg width="64" height="64" version="1" xmlns="http://www.w3.org/2000/svg">
 <path d="m4.0507997 32.000415c-0.0118 0.333995-0.050799 0.66199-0.050799 0.999985-3e-7 15.511779 12.487821 27.9996 27.999599 27.9996s27.9996-12.487821 27.9996-27.9996c0-0.337995-0.04-0.66599-0.05-0.999985-0.527992 15.041785-12.775817 26.999614-27.9496 26.999614-15.174183 0-27.421608-11.957829-27.9496-26.999614z" style="opacity:.2"/>
 <rect transform="matrix(0,-1,-1,0,0,0)" x="-60" y="-60" width="55.999" height="55.999" rx="28" ry="28" style="fill:#4d95db"/>
 <g transform="matrix(.19539721 0 0 .19963715 8.2405398 10.102528)" style="opacity:.2">
  <path d="m120 4.5c-14.53 0-28.434 2.691-41.244 7.591 4.917-0.674 10.804-1.091 17.869-1.091 40.294 0 63.143 17.536 79.75 36.125 11.08 12.406 30.33 49.375 44.62 49.375 4.159-0.36 7.427-3.585 9.998-8.523-13.9-48.21-58.33-83.477-111.01-83.477z"/>
  <path d="m49.333 64.333c39.021 0 107.68 82.677 180.63 91.074 1.861-5.784 3.285-11.765 4.219-17.905-33.16-7.22-74.85-45.921-89.85-60.5-23.44-22.791-45.314-45.667-75.331-45.667-10.24 0-19.639 1.762-27.772 4.208-15.064 14.055-26.365 32.087-32.224 52.428 12.038-12.033 25.795-23.636 40.329-23.636z"/>
  <path d="m165.12 194.12c-66.995 0-117.62-36.12-135.62-36.12-7.34 0-11.575 5.128-14.018 11.201 11.564 24.521 31.501 44.314 56.127 55.695-3.472-8.922-5.566-20.729 7.682-20.729 11.708 0 23.375 10.083 66.583 10.083 19.729 0 37.899-4.116 51.258-8.287 7.072-6.35 13.359-13.557 18.691-21.462-12.762 4.544-31.348 9.624-50.698 9.624z"/>
 </g>
 <g transform="matrix(.19539721 0 0 .19963715 8.2405398 9.1023564)" style="fill:#ffffff">
  <path d="m120 4.5c-14.53 0-28.434 2.691-41.244 7.591 4.917-0.674 10.804-1.091 17.869-1.091 40.294 0 63.143 17.536 79.75 36.125 11.08 12.406 30.33 49.375 44.62 49.375 4.159-0.36 7.427-3.585 9.998-8.523-13.89-48.21-58.32-83.477-111-83.477z"/>
  <path d="m49.333 64.333c39.021 0 107.68 82.677 180.63 91.074 1.861-5.784 3.285-11.765 4.219-17.905-33.16-7.22-74.85-45.921-89.85-60.5-23.44-22.791-45.314-45.667-75.331-45.667-10.24 0-19.639 1.762-27.772 4.208-15.063 14.055-26.364 32.087-32.223 52.428 12.038-12.033 25.795-23.636 40.329-23.636z"/>
  <path d="m165.12 194.12c-66.995 0-117.62-36.12-135.62-36.12-7.34 0-11.575 5.128-14.018 11.201 11.564 24.521 31.501 44.314 56.127 55.695-3.472-8.922-5.566-20.729 7.682-20.729 11.708 0 23.375 10.083 66.583 10.083 19.729 0 37.899-4.116 51.258-8.287 7.072-6.35 13.359-13.557 18.691-21.462-12.762 4.544-31.348 9.624-50.698 9.624z"/>
 </g>
 <path d="M 32 4 C 16.488222 4 4 16.488222 4 32 C 4 32.113554 4.0112846 32.224034 4.0175781 32.335938 C 4.3691163 17.134398 16.710946 5 32 5 C 47.289054 5 59.630884 17.134398 59.982422 32.335938 C 59.988797 32.224034 60 32.113554 60 32 C 60 16.488222 47.511778 4 32 4 z" style="fill:#ffffff;opacity:.2"/>
</svg>

<svg xmlns="http://www.w3.org/2000/svg" width="64" height="64" version="1">
 <path style="opacity:0.2" d="m 4.0507997,32.000415 c -0.0118,0.333995 -0.050799,0.66199 -0.050799,0.999985 C 4.0000004,48.512179 16.487822,61 31.9996,61 47.511378,61 59.9992,48.512179 59.9992,33.0004 c 0,-0.337995 -0.04,-0.66599 -0.05,-0.999985 C 59.421208,47.0422 47.173383,59.000029 31.9996,59.000029 16.825417,59.000029 4.5779921,47.0422 4.0499997,32.000415 Z"/>
 <rect style="fill:#4d95db" width="55.999" height="55.999" x="-60" y="-60" rx="28" ry="28" transform="matrix(0,-1,-1,0,0,0)"/>
 <g style="opacity:0.2" transform="matrix(0.19539721,0,0,0.19963715,8.2405398,10.102528)">
  <path d="M 120,4.5 C 105.47,4.5 91.566,7.191 78.756,12.091 83.673,11.417 89.56,11 96.625,11 c 40.294,0 63.143,17.536 79.75,36.125 11.08,12.406 30.33,49.375 44.62,49.375 4.159,-0.36 7.427,-3.585 9.998,-8.523 C 217.093,39.767 172.663,4.5 119.983,4.5 Z"/>
  <path d="m 49.333,64.333 c 39.021,0 107.68,82.677 180.63,91.074 1.861,-5.784 3.285,-11.765 4.219,-17.905 -33.16,-7.22 -74.85,-45.921 -89.85,-60.5 -23.44,-22.791 -45.314,-45.667 -75.331,-45.667 -10.24,0 -19.639,1.762 -27.772,4.208 C 26.165,49.598 14.864,67.63 9.005,87.971 21.043,75.938 34.8,64.335 49.334,64.335 Z"/>
  <path d="M 165.12,194.12 C 98.125,194.12 47.5,158 29.5,158 c -7.34,0 -11.575,5.128 -14.018,11.201 11.564,24.521 31.501,44.314 56.127,55.695 -3.472,-8.922 -5.566,-20.729 7.682,-20.729 11.708,0 23.375,10.083 66.583,10.083 19.729,0 37.899,-4.116 51.258,-8.287 7.072,-6.35 13.359,-13.557 18.691,-21.462 -12.762,4.544 -31.348,9.624 -50.698,9.624 z"/>
 </g>
 <g style="fill:#ffffff" transform="matrix(0.19539721,0,0,0.19963715,8.2405398,9.1023564)">
  <path d="M 120,4.5 C 105.47,4.5 91.566,7.191 78.756,12.091 83.673,11.417 89.56,11 96.625,11 c 40.294,0 63.143,17.536 79.75,36.125 11.08,12.406 30.33,49.375 44.62,49.375 4.159,-0.36 7.427,-3.585 9.998,-8.523 C 217.103,39.767 172.673,4.5 119.993,4.5 Z"/>
  <path d="m 49.333,64.333 c 39.021,0 107.68,82.677 180.63,91.074 1.861,-5.784 3.285,-11.765 4.219,-17.905 -33.16,-7.22 -74.85,-45.921 -89.85,-60.5 -23.44,-22.791 -45.314,-45.667 -75.331,-45.667 -10.24,0 -19.639,1.762 -27.772,4.208 C 26.166,49.598 14.865,67.63 9.006,87.971 21.044,75.938 34.801,64.335 49.335,64.335 Z"/>
  <path d="M 165.12,194.12 C 98.125,194.12 47.5,158 29.5,158 c -7.34,0 -11.575,5.128 -14.018,11.201 11.564,24.521 31.501,44.314 56.127,55.695 -3.472,-8.922 -5.566,-20.729 7.682,-20.729 11.708,0 23.375,10.083 66.583,10.083 19.729,0 37.899,-4.116 51.258,-8.287 7.072,-6.35 13.359,-13.557 18.691,-21.462 -12.762,4.544 -31.348,9.624 -50.698,9.624 z"/>
 </g>
 <path style="opacity:0.2;fill:#ffffff" d="M 32 4 C 16.488222 4 4 16.488222 4 32 C 4 32.113554 4.0112846 32.224034 4.0175781 32.335938 C 4.3691163 17.134398 16.710946 5 32 5 C 47.289054 5 59.630884 17.134398 59.982422 32.335938 C 59.988797 32.224034 60 32.113554 60 32 C 60 16.488222 47.511778 4 32 4 z"/>
</svg>
